X:109
T:Dan's Freilach
O:klezmer
M:3/4
L:1/8
Q:1/4=148
K:Dm
V:1
"D" D4 D2 |^F4 ^F2 |A4 A2 |"Cm" c6 |
"Cm" c3 BB A|A3 GG ^F|"D" A6 |A6 :| |:
M:4/4
"Cm" cB cB dc BA |"Gm" BA BA cB AG |"Eb" AB AG ^F_E D_E |"D" [^F8D8]:| |:
"D" d2 d_e ^f2 ^fg |a2 ab c'4 |"Cm" c'b ba ag g^f |"D" a8 :|





